!!!OTL: Jungknab auf Botschaft Es wollt ein Jungknab auf Botschaft gehn
!!!ARE: Europa, Mitteleuropa, Lothringen, Weiler
!!!SCT: D0012
!!!YEM: Copyright 1995, estate of Helmut Schaffrath.
**kern
*ICvox
*Ivox
!! Mixed meters:  4/4; 3/4
*M4/4
*k[f#c#g#d#]
*E:
=1
{8e
8e
8e
=2
2b
4cc#
4ddn
=3
4cc#
4b
[2a
=4
4a]}
{4a
4b
4b
=5
*M3/4
4.ee
8ff#
4ee
=6
*M4/4
4ddn
4cc#
2b}
=7
*M3/4
{8b
8a
4b
4ee
=8
4ddn
4cc#
4b
=9
*M4/4
4ddn
4ee
2b}
=10
*M3/4
{4ddn
4cc#
4b
=11
2a
4b
=12
4gn
4f#
[4e
=13
4.e]}
{8e
8e
8e
=14
2b
4a
=15
*M4/4
4b
4ccn
4b
4gn
=16
4f#
4e
8r}
==
!!!AGN: Kilt - Lied
!! Achttonskala ( dorisch mit Alteration ?)
!!    Taktwiederholung; Inzipit entfernte Variante zum Lied
!!!ONB: ESAC (Essen Associative Code) Database: DVA
!!!AMT: irregular
!!!AIN: vox
!!!EED: Helmut Schaffrath
!!!EEV: 1.0
*-
